Site26/img/svg/fb-ico.svg

<svg width="18" height="18" viewBox="0 0 18 18" fill="none" xmlns="http://www.w3.org/2000/svg">
<path d="M2.63672 18H8.50781V11.6016H6.39844V9.49219H8.50781V6.85547C8.50781 5.40157 9.69063 4.21875 11.1445 4.21875H13.7812V6.32812H11.6719C11.0903 6.32812 10.6172 6.80122 10.6172 7.38281V9.49219H13.6861L13.3345 11.6016H10.6172V18H15.3633C16.8172 18 18 16.8172 18 15.3633V2.63672C18 1.18282 16.8172 0 15.3633 0H2.63672C1.18282 0 0 1.18282 0 2.63672V15.3633C0 16.8172 1.18282 18 2.63672 18ZM1.05469 2.63672C1.05469 1.7644 1.7644 1.05469 2.63672 1.05469H15.3633C16.2356 1.05469 16.9453 1.7644 16.9453 2.63672V15.3633C16.9453 16.2356 16.2356 16.9453 15.3633 16.9453H11.6719V12.6562H14.228L14.9311 8.4375H11.6719V7.38281H14.8359V3.16406H11.1445C9.10904 3.16406 7.45312 4.81998 7.45312 6.85547V8.4375H5.34375V12.6562H7.45312V16.9453H2.63672C1.7644 16.9453 1.05469 16.2356 1.05469 15.3633V2.63672Z" fill="black"/>
</svg>

<svg width="18" height="18" fill="none" xmlns="http://www.w3.org/2000/svg">
  <path d="M2.6367 18h5.8711v-6.3984H6.3984V9.4922h2.1094V6.8555c0-1.454 1.1828-2.6368 2.6367-2.6368h2.6367v2.1094h-2.1093c-.5816 0-1.0547.4731-1.0547 1.0547v2.1094h3.0689l-.3516 2.1094h-2.7173V18h4.7461C16.8172 18 18 16.8172 18 15.3633V2.6367C18 1.1828 16.8172 0 15.3633 0H2.6367C1.1828 0 0 1.1828 0 2.6367v12.7266C0 16.8172 1.1828 18 2.6367 18ZM1.0547 2.6367c0-.8723.7097-1.582 1.582-1.582h12.7266c.8723 0 1.582.7097 1.582 1.582v12.7266c0 .8723-.7097 1.582-1.582 1.582h-3.6914v-4.2891h2.5561l.7031-4.2187h-3.2592V7.3828h3.164V3.1641h-3.6914c-2.0355 0-3.6914 1.6559-3.6914 3.6914v1.582H5.3437v4.2187h2.1094v4.2891H2.6367c-.8723 0-1.582-.7097-1.582-1.582V2.6367Z" fill="#000"/>
</svg>
